icons/person-star.svg

<svg xmlns="http://www.w3.org/2000/svg" width="24" height="24" viewBox="0 0 24 24">
  <path d="M10,16 C12.9230769,16 15.8461538,16.9493754 15.9941334,19.3106425 L16,19.5 L16,20.5 C16,20.975 16,21.90125 15.142625,21.9926875 L15,22 L3,22 C2.1,22 2.01,21.19 2.001,20.6635 L2,19.5 C2,17.0641026 4.84812623,16.0522682 7.76928134,16.0019808 L8,16 L10,16 Z M9,6 C11.209139,6 13,7.790861 13,10 C13,12.209139 11.209139,14 9,14 C6.790861,14 5,12.209139 5,10 C5,7.790861 6.790861,6 9,6 Z M18.2212829,2.18140769 C18.3198892,2.23007281 18.3997029,2.30988657 18.448368,2.40849288 L19.3225168,4.17971176 L21.2771729,4.46373992 C21.5504453,4.50344873 21.7397861,4.75717015 21.7000773,5.03044258 C21.684265,5.1392611 21.6330214,5.23983231 21.5542796,5.31658661 L20.1398772,6.69528824 L20.4737723,8.64204618 C20.5204528,8.9142144 20.3376589,9.17269237 20.0654907,9.21937287 C19.9571118,9.23796129 19.8456278,9.22030395 19.7482976,9.16913442 L18,8.25 L16.2517024,9.16913442 C16.0072801,9.29763482 15.7049666,9.20366157 15.5764662,8.95923927 C15.5252966,8.86190903 15.5076393,8.75042499 15.5262277,8.64204618 L15.8601228,6.69528824 L14.4457204,5.31658661 C14.2479786,5.123836 14.2439325,4.80727937 14.4366831,4.60953758 C14.5134374,4.53079576 14.6140086,4.47955217 14.7228271,4.46373992 L16.6774832,4.17971176 L17.551632,2.40849288 C17.6738431,2.16086605 17.973656,2.05919655 18.2212829,2.18140769 Z"/>
</svg>

<svg xmlns="http://www.w3.org/2000/svg" viewBox="0 0 24 24">
  <path d="M10 16c2.92 0 5.85.95 6 3.31v1.19c0 .48 0 1.4-.86 1.5H3c-.9 0-.99-.81-1-1.34V19.5c0-2.44 2.85-3.45 5.77-3.5H10zM9 6a4 4 0 1 1 0 8 4 4 0 0 1 0-8zm9.22-3.82c.1.05.18.13.23.23l.87 1.77 1.96.28a.5.5 0 0 1 .27.86L20.14 6.7l.33 1.94a.5.5 0 0 1-.72.53L18 8.25l-1.75.92a.5.5 0 0 1-.72-.53l.33-1.94-1.41-1.38a.5.5 0 0 1 .27-.86l1.96-.28.87-1.77a.5.5 0 0 1 .67-.23z"/>
</svg>
